!!!!SEGMENT: pl-wtm--r-1564--008_stefani-jozef--stabat-mater-aria-per-il-tenore.krn
!!!cenid: 18xx:2889
!!!COM: Stefani, Józef
!!!COM-rismID: pe30024097
!!!CDT: 1800/04/16-1876/03/19
!!!CNT: Polish
!!!OPR: Stabat Mater
!!!OTL: Aria per il Tenore
!!!OMV: 008
!!!PDT:
!!!AGN: Sacred
!!!SMS-siglum: PL-Wtm
!!!SMS-shelfmark: R 1564
!!!SMS-shelfwork: 001-008 M
!!!SMS-variant:
!!!SMS-altvar:
!!!NIFC-rismSourceID: 1001115293
!!!NIFC-islandoraID: pl-wtm:27085
!!!URL-pdf-islandora: https://repozytorium.nifc.pl/islandora/object/pl-wtm%3A27085/datastream/PDF/view
!!!URL-scan: https://polish.musicsources.pl/pl/lokalizacje/galeria/rekopisy/6365 @EN{Scan on Polish Music Sources Website} @PL{Skany w portalu Dziedzictwo Muzyki Polskiej w otwartym dostępie}
!!!ONB-nifc: UWAGA: części Stabat Mater: 1. Andante, 2. Andantino, 3. Aria (Adagio), 4. Adagio, 5. Aria per il Basso, 6. Adagio, 7. Larghetto, 8. Aria per il Tenore, 9. Duetino (per il Soprano e Alto con Choro), 10. Arietta per il Alto, 11. Andantino (w źródle jako No. 10 ½), 12. Finale (w źródle jako No. 11)
!!!OMD: Andantino ma non troppo.
!!!AIN: 1 cbass 1 cello 1 clars 1 fagot 1 flt 1 viola 2 violn 1 vox
!!!key:
**kern	**dynam	**kern	**dynam	**kern	**text	**kern	**dynam	**kern	**dynam	**kern	**dynam	**kern	**dynam	**kern	**dynam	**kern	**dynam
*part9	*part9	*part8	*part8	*part7	*part7	*part6	*part6	*part5	*part5	*part4	*part4	*part3	*part3	*part2	*part2	*part1	*part1
*staff9	*	*staff8	*	*staff7	*staff7	*staff6	*	*staff5	*	*staff4	*	*staff3	*	*staff2	*	*staff1	*
*Icbass	*	*Icello	*	*Ivox	*	*Iviola	*	*Ivioln	*	*Ivioln	*	*Ifagot	*	*Iclars	*	*Iflt	*
*I"C: Baſsi	*	*I"Violoncelli	*	*I"Voce solo	*	*I"Viole	*	*I"Violino II	*	*I"Violini	*	*I"Fagotti	*	*I"Clarinetti	*	*I"Flauto	*
*I'cb	*	*I'vlc	*	*I'vox humana	*	*I'vla	*	*I'vl 2	*	*I'vl 1	*	*I'fag	*	*I'cl	*	*I'fl	*
*clefF4	*	*clefF4	*	*clefC4	*	*clefC3	*	*clefG2	*	*clefG2	*	*clefF4	*	*clefG2	*	*clefG2	*
*Trd0c0	*	*	*	*	*	*	*	*	*	*	*	*	*	*	*	*	*
*k[b-e-]	*	*k[b-e-]	*	*k[b-e-]	*	*k[b-e-]	*	*k[b-e-]	*	*k[b-e-]	*	*k[b-e-]	*	*k[b-e-]	*	*k[b-e-]	*
*g:	*	*g:	*	*g:	*	*g:	*	*g:	*	*g:	*	*g:	*	*g:	*	*g:	*
*M4/4	*	*M4/4	*	*M4/4	*	*M4/4	*	*M4/4	*	*M4/4	*	*M4/4	*	*M4/4	*	*M4/4	*
*met(c)	*	*met(c)	*	*met(c)	*	*met(c)	*	*met(c)	*	*met(c)	*	*met(c)	*	*met(c)	*	*met(c)	*
=1	=1	=1	=1	=1	=1	=1	=1	=1	=1	=1	=1	=1	=1	=1	=1	=1	=1
*	*	*	*	*	*	*	*	*	*	*	*	*^	*	*	*	*	*
*2\right	*	*2\right	*	*	*	*2\right	*	*2\right	*	*2\right	*	*2\right	*2\right	*	*2\right	*	*2\right	*
!!LO:TX:a:t=P:problem:all\right:global
!	!	!LO:TX:t=P:problem=mixed beam	!	!	!	!	!	!	!	!	!	!	!	!	!	!	!	!
4G\	.	8GG|<\L	f	1r	.	8r	.	8r	.	8r	f	8r	4GG\	f	8r	.	8r	f
.	.	(8B-\	.	.	.	(8G/L	.	(8b-/L	.	(8dd\L	.	(8B-/L	.	.	(8ddL 8b-\	.	(8ddd\L	.
4r	.	8c\	.	.	.	8A/	.	8a/	.	8cc\	.	8c/	4r	.	8cc 8a\	.	8ccc\	.
.	.	8d\J)	.	.	.	8B-/J)	.	8g/J)	.	8b-\J)	.	8d/J)	.	.	8b-J 8g\)	.	8bb-\J)	.
!	!	!LO:TX:t=P:problem=mixed beam	!	!	!	!	!	!	!	!	!	!	!	!	!	!	!	!
4C/	.	8C|<\L	.	.	.	8r	.	8r	.	8r	.	8r	4C\	.	8r	.	8r	.
.	.	(8c\	.	.	.	(8A/L	.	(8cc/L	.	(8ee-\L	.	(8c\L	.	.	(8ee-L 8cc\	.	(8eee-\L	.
4r	.	8d\	.	.	.	8B-/	.	8b-/	.	8dd\	.	8d\	4r	.	8dd 8b-\	.	8ddd\	.
.	.	8e-\J)	.	.	.	8c/J)	.	8a/J)	.	8cc\J)	.	8e-\J)	.	.	8ccJ 8a\)	.	8ccc\J)	.
=2	=2	=2	=2	=2	=2	=2	=2	=2	=2	=2	=2	=2	=2	=2	=2	=2	=2	=2
*	*	*	*	*2\right	*	*	*	*	*	*	*	*	*	*	*	*	*	*
4D\	.	4d\	.	2r	.	4d\	.	8r	.	8r	.	4d 4D\	2ryy	.	8r	.	8r	.
.	.	.	.	.	.	.	.	(8d/L	.	(8b-/L	.	.	.	.	(8ddL 8b-\	.	(8bb-\L	.
4r	.	4r	.	.	.	4r	.	8c/	.	8a/	.	4r	.	.	8cc 8a\	.	8aa\	.
.	.	.	.	.	.	.	.	8B-/J)	.	8g/J)	.	.	.	.	8b-J 8g\)	.	8gg\J)	.
4D\	.	4D\	.	4r	.	4d\	.	8r	.	8r	.	4D/	4D\	.	8r	.	8r	.
.	.	.	.	.	.	.	.	(8c/L	.	(8a/L	.	.	.	.	(8ccL 8a/	.	(8aa\L	.
4r	.	4r	.	[4d\	Vi-	4r	.	8B-/	.	8g/	.	4r	4ryy	.	8b- 8g/	.	8gg\	.
.	.	.	.	.	.	.	.	8A/J)	.	8f#X/J)	.	.	.	.	8aJ 8f#X/)	.	8ff#X\J)	.
=3	=3	=3	=3	=3	=3	=3	=3	=3	=3	=3	=3	=3	=3	=3	=3	=3	=3	=3
*	*	*	*	*	*	*	*	*	*	*	*	*	*	*	*^	*	*	*
!LO:TX:t=P:problem=mixed beam	!	!LO:TX:t=P:problem=mixed beam	!	!	!	!	!	!	!	!	!	!	!	!	!	!	!	!	!
8GG/L	.	8GG/L	fp	4.d\]	.	8dL 8G\	.	(8B-'/L	fp	(8g'/L	fp	4G/	4G\	.	4g/	4g\	.	4gg\	.
8G/	.	8G/	.	.	.	8d 8G\	.	8B-'/	.	8g'/	.	.	.	.	.	.	.	.	.
8G/	.	8G/	.	.	.	8d 8G\	.	8B-'/	.	8g'/	.	4r	2.ryy	.	4r	2.ryy	.	4r	.
8G/J	.	8G/J	.	8c\	-dit	8dJ 8G\	.	8B-'/J)	.	8g'/J)	.	.	.	.	.	.	.	.	.
8G\L	.	8G\L	.	8B-\	su-	8dL 8G\	.	(8B-/L	.	(8g'/L	.	2r	.	.	2r	.	.	2r	.
8G\	.	8G\	.	8A\	-um	8d 8G\	.	8B-/	.	8g'/	.	.	.	.	.	.	.	.	.
8G\	.	8G\	.	8G\	dul-	8d 8G\	.	8B-/	.	8g'/	.	.	.	.	.	.	.	.	.
8G\J	.	8G\J	.	8A\	-cem	8dJ 8G\	.	8B-/J)	.	8g'/J)	.	.	.	.	.	.	.	.	.
!!LO:LB:g=original
=4	=4	=4	=4	=4	=4	=4	=4	=4	=4	=4	=4	=4	=4	=4	=4	=4	=4	=4	=4
8G\L	.	8G\L	.	2B-\	na-	8dL 8B-\	.	8B-/L	.	8g/L	.	1rAAA	2F\	.	1rF	2rff	.	2r	.
8G\	.	8G\	.	.	.	8d 8B-\	.	8B-/	.	8g/	.	.	.	.	.	.	.	.	.
8G\	.	8G\	.	.	.	8d 8B-\	.	8B-/	.	8g/	.	.	.	.	.	.	.	.	.
8G\J	.	8G\J	.	.	.	8d 8B-\	.	8B-/	.	8g/	.	.	.	.	.	.	.	.	.
8G\L	.	8G\L	.	4G/	-tum	8d 8B-\	.	8B-/	.	8g/	.	.	4rA	.	.	4rff	.	4r	.
8G\	.	8G\	.	.	.	8d 8B-\	.	8B-/	.	8g/	.	.	.	.	.	.	.	.	.
*	*	*	*	*	*	*	*	*	*	*	*	*clefC4	*	*	*	*	*	*	*
8G\	.	8G\	.	8d\	vi-	8d 8B-\	.	8B-/	.	8g/	.	.	(8d/L	.	.	(8dd/L	p	(8ddd\L	p
8G\J	.	8G\J	.	8g\	-dit	8dJ 8B-\	.	8B-/J	.	8g/J	.	.	8g/J)	.	.	8gg/J)	.	8ggg\J)	.
=5	=5	=5	=5	=5	=5	=5	=5	=5	=5	=5	=5	=5	=5	=5	=5	=5	=5	=5	=5
8C/L	.	8C/L	.	4e-\	su-	8e-L 8G/	.	8c/L	.	8g/L	.	1rGG	4e-/	.	1rA	4ee-/	.	4eee-\|	.
8C/	.	8C/	.	.	.	8e- 8G/	.	8c/	.	8g/	.	.	.	.	.	.	.	.	.
8C/	.	8C/	.	2c\	-um	8e- 8G/	.	8c/	.	8g/	.	.	2c/	.	.	2cc/	.	2ccc\|	.
8C/J	.	8C/J	.	.	.	8e-J 8G/	.	8c/	.	8g/J	.	.	.	.	.	.	.	.	.
8AA/L	.	8AA/L	.	.	.	8e-L 8F/	.	8c/	.	8f/L	.	.	.	.	.	.	.	.	.
8AA/	.	8AA/	.	.	.	8e- 8F/	.	8c/	.	8f/	.	.	.	.	.	.	.	.	.
8AA/	.	8AA/	.	8c\	dul-	8e- 8F/	.	8c/	.	8f/	.	.	(8c/L	.	.	(8cc/L	.	(8ccc\L	.
8AA/J	.	8AA/J	.	8f\	-cem	8e-J 8F/	.	8c/J	.	8f/J	.	.	8f/J)	.	.	8ff/J)	.	8fff\J)	.
=6	=6	=6	=6	=6	=6	=6	=6	=6	=6	=6	=6	=6	=6	=6	=6	=6	=6	=6	=6
!LO:TX:t=P:problem=mixed beam	!	!LO:TX:t=P:problem=mixed beam	!	!	!	!	!	!	!	!	!	!	!	!	!	!	!	!	!
8BB-\L	.	8BB-\L	.	4d\	na-	8dL 8F/	.	8B-/L	.	8f/L	.	1rGG	4d/	.	1rA	4dd/	.	4ddd\	.
8B-\	.	8B-\	.	.	.	8d 8F/	.	8B-/	.	8f/	.	.	.	.	.	.	.	.	.
8B-\	.	8B-\	.	2B-\	-tum,	8d 8F/	.	8B-/	.	8f/	.	.	2B-/	.	.	2b-/	.	2bb-\	.
8B-\J	.	8B-\J	.	.	.	8dJ 8F/	.	8B-/	.	8f/J	.	.	.	.	.	.	.	.	.
!LO:TX:t=P:problem=mixed beam	!	!LO:TX:t=P:problem=mixed beam	!	!	!	!	!	!	!	!	!	!	!	!	!	!	!	!	!
8GG/L	.	8GG/L	.	.	.	8dL 8G/	.	8B-/	.	8d/L	.	.	.	.	.	.	.	.	.
8G/	.	8G/	.	.	.	8d 8G/	.	8B-/	.	8d/	.	.	.	.	.	.	.	.	.
8G/	.	8G/	.	(4d\	Vi-	8d 8G/	.	8B-/	.	8d/	.	.	4r	.	.	4r	.	4r	.
8G/J	.	8G/J	.	.	.	8dJ 8G/	.	8B-/J	.	8d/J	.	.	.	.	.	.	.	.	.
*	*	*	*	*	*	*	*	*	*	*	*	*	*	*	*v	*v	*	*	*
=7	=7	=7	=7	=7	=7	=7	=7	=7	=7	=7	=7	=7	=7	=7	=7	=7	=7	=7
8E-'\L	.	8E-'\L	.	4.c\)	.	8G/L	.	8G/L	.	8c'/L	.	1r	1r	.	1r	.	1r	.
8E-'\	.	8E-'\	.	.	.	8G/	.	8G/	.	8c'/	.	.	.	.	.	.	.	.
(8E-\	.	(8E-\	.	.	.	8G/	.	8G/	.	(8c/	.	.	.	.	.	.	.	.
!	!	!	!	!	!	!	!	!	!	!	!LO:HP:a	!	!	!	!	!	!	!
8D\J)	.	8D\J)	.	8Bn\	-dit	8G/	.	8G/	.	8Bn/J)	<	.	.	.	.	.	.	.
(8E-\L	.	(8E-\L	.	8c\	su-	8G/	.	8G/	.	(8c/L	.	.	.	.	.	.	.	.
8D\)	.	8D\)	.	8B\	-um	8G/	.	8G/	.	8B/)	.	.	.	.	.	.	.	.
(8E-\	.	(8E-\	.	8c\	dul-	8G/	.	8G/	.	(8c/	.	.	.	.	.	.	.	.
8BBn\J)	.	8BBn\J)	.	8d\	-cem	8G/J	.	8G/J	.	8d/J)	[[	.	.	.	.	.	.	.
!!LO:PB:g=original
*	*	*	*	*	*	*	*	*	*	*	*	*v	*v	*	*	*	*	*
=8	=8	=8	=8	=8	=8	=8	=8	=8	=8	=8	=8	=8	=8	=8	=8	=8	=8
!	!	!	!	!	!	!	!	!	!	!	!LO:HP:a	!	!	!	!	!	!
8C'/L	.	8C'/L	.	4.e-\	Vi-	8G/L	.	8G/L	.	8e-'/L	<	1r	.	1r	.	1r	.
8C'/	.	8C'/	.	.	.	8G/	.	8G/	.	8e-'/	.	.	.	.	.	.	.
!	!LO:HP:a	!	!LO:HP:a	!	!	!	!	!	!	!	!	!	!	!	!	!	!
(8C/	<	(8C/	<	.	.	8G/	.	8G/	.	(8e-/	.	.	.	.	.	.	.
8BBn/J)	.	8BBn/J)	.	8d\	-dit	8G/	.	8G/	.	8d/J)	.	.	.	.	.	.	.
(8C/L	.	(8C/L	.	8e-\L	su-	8G/	.	8G/	.	(8e-/L	.	.	.	.	.	.	.
8BB/J)	.	8BB/J)	.	8d\J	-um	8G/	.	8G/J	.	8d/J)	.	.	.	.	.	.	.
(8C/L	.	(8C/L	.	8e-\	dul-	8G/	.	(8G/L	.	(8e-/L	.	.	.	.	.	.	.
8D/J)	[[	8D/J)	[[	8f\	-cem	8G/J	.	8Bn/J)	.	8f/J)	[[	.	.	.	.	.	.
=9	=9	=9	=9	=9	=9	=9	=9	=9	=9	=9	=9	=9	=9	=9	=9	=9	=9
!	!LO:DY:a	!	!LO:DY:a	!	!	!	!	!	!	!	!	!	!	!	!	!	!
4E-\	p	4E-\	p	(4f#X\	na-	4r	.	4r	.	4r	p	1r	.	1r	.	1r	.
4r	.	4r	.	4g\	.	4G/	.	4c/	.	4e-/	.	.	.	.	.	.	.
4C/	.	4C/	.	8a\L	.	4r	.	4r	.	4r	.	.	.	.	.	.	.
.	.	.	.	8g\	.	.	.	.	.	.	.	.	.	.	.	.	.
4r	.	4r	.	8e-\	.	4G/	.	4c/	.	4e-/	.	.	.	.	.	.	.
.	.	.	.	8c\J	.	.	.	.	.	.	.	.	.	.	.	.	.
=10	=10	=10	=10	=10	=10	=10	=10	=10	=10	=10	=10	=10	=10	=10	=10	=10	=10
4D\	.	4D\	.	8B-\L	.	4r	.	4r	.	4r	.	1r;	.	1r;	.	1r;	.
.	.	.	.	8A\J	.	.	.	.	.	.	.	.	.	.	.	.	.
4r	.	4r	.	4.G/	.	4G/	.	4B-/	.	4d/	.	.	.	.	.	.	.
4D\	.	4D\	.	.	.	4r	.	4r	.	4r	.	.	.	.	.	.	.
!	!	!	!	!LO:TX:t=P:problem=fermata nad trzema nutami	!	!	!	!	!	!	!	!	!	!	!	!	!
.	.	.	.	(8F#X\L	.	.	.	.	.	.	.	.	.	.	.	.	.
4r;	.	4r;	.	8e-\	.	4A;/	.	4c;/	.	4f#X;/	.	.	.	.	.	.	.
.	.	.	.	8d\J))	.	.	.	.	.	.	.	.	.	.	.	.	.
=11	=11	=11	=11	=11	=11	=11	=11	=11	=11	=11	=11	=11	=11	=11	=11	=11	=11
*	*	*	*	*	*	*	*	*	*	*	*	*^	*	*^	*	*	*
8G\L	.	8G\L	.	4G/	-tum.	8G/L	.	8B-/L	.	8g/L	.	4r	4ryy	.	4r	4ryy	.	4r	.
8G\	.	8G\	.	.	.	8G/	.	8B-/	.	8g/	.	.	.	.	.	.	.	.	.
*	*	*	*	*	*	*	*	*	*	*	*	*clefF4	*	*	*	*	*	*	*
!	!LO:HP:a	!	!LO:HP:a	!	!	!	!	!	!	!	!	!LO:TX:t=P:problem=brak zaznaczonej zmiany klucza	!	!	!	!	!	!	!
8G\	<	8G\	<	4r	.	8G/	.	8B-/	.	8g/	<	4B-\	4G\	.	4dd/	4b-\	.	4gg\	<
8G\J	.	8G\J	.	.	.	8G/J	.	8B-/J	.	8g/J	.	.	.	.	.	.	.	.	.
8F\L	.	8F\L	.	2r	.	8c\L	.	8f/L	.	8a/L	.	2c/	4.F\	.	2ff 2cc\	2ryy	.	2aa\	[[
8F\	.	8F\	.	.	.	8c\	.	8f/	.	8a/	.	.	.	.	.	.	.	.	.
8F\	.	8F\	.	.	.	8c\	.	8f/	.	8a/	.	.	.	.	.	.	.	.	.
8F\J	[[	8F\J	[[	.	.	8c\J	.	8f/J	.	8a/J	[[	.	8E-\	.	.	.	.	.	.
!!LO:LB:g=original
*	*	*	*	*	*	*	*	*	*	*	*	*v	*v	*	*	*	*	*	*
=12	=12	=12	=12	=12	=12	=12	=12	=12	=12	=12	=12	=12	=12	=12	=12	=12	=12	=12
8D-X'/L	f	8D-X'/L	f	4.B-\	mo-	8d-X'\L	.	8f/L	.	8b-'\L	f	(4.d-X (4.D-X\	.	1ff	(4.b-\	.	(4.bb-X\	f
8D-'/	.	8D-'/	.	.	.	8d-'\	.	8f/	.	8b-'\	.	.	.	.	.	.	.	.
(8D-/	.	(8D-/	.	.	.	(8d-\	.	8f/	.	(8b-\	.	.	.	.	.	.	.	.
8C/J)	.	8C/J)	.	8A\	-ri-	8c\J)	.	8f/	.	8a\J)	.	8c 8C\))	.	.	8a\)	.	8aa\)	.
(8D-/L	.	(8D-/L	.	8B-\	-en-	(8d-\L	.	8f/	.	(8b-\L	.	(8d-L 8D-\	.	.	(8b-\L	.	(8bb-\L	.
8C/)	.	8C/)	.	8A\	-do	8c\)	.	8f/	.	8a\)	.	8c 8C\	.	.	8a\	.	8aa\	.
(8D-/	.	(8D-/	.	8B-\	de-	(8d-\	.	8f/	.	(8b-\	.	8d- 8D-\	.	.	8b-\	.	8bb-\	.
8AA/J)	.	8AA/J)	.	8c\	-so-	8A\J)	.	8f/J	.	8cc\J)	.	8AJ 8AA\)	.	.	8cc\J)	.	8ccc\J)	.
=13	=13	=13	=13	=13	=13	=13	=13	=13	=13	=13	=13	=13	=13	=13	=13	=13	=13	=13
8BB-/L	.	8BB-/L	.	2d-X\	-la-	8B-/L	.	8f/L	.	8dd-X\L	.	2B- 2BB-\	.	1ff	2dd-X\	.	2ddd-X\	.
8BB-/	.	8BB-/	.	.	.	8B-/	.	8f/	.	8dd-\	.	.	.	.	.	.	.	.
8BB-/	.	8BB-/	.	.	.	8B-/	.	8f/	.	8dd-\	.	.	.	.	.	.	.	.
8BB-/J	.	8BB-/J	.	.	.	8B-/J	.	8f/	.	8dd-\J	.	.	.	.	.	.	.	.
8D-X\L	.	8D-X\L	.	4B-\	-tum	8d-X\L	.	8f/	.	8b-\L	.	2d-X 2D-X\	.	.	2b-\	.	2bb-\	.
8D-\	.	8D-\	.	.	.	8d-\	.	8f/	.	8b-\	.	.	.	.	.	.	.	.
8D-\	.	8D-\	.	8B-\	dum	8d-\	.	8f/	.	8b-\	.	.	.	.	.	.	.	.
8D-\J	.	8D-\J	.	8B-\	e-	8d-\J	.	8f/J	.	8b-\J	.	.	.	.	.	.	.	.
*	*	*	*	*	*	*	*	*	*	*	*	*	*	*v	*v	*	*	*
=14	=14	=14	=14	=14	=14	=14	=14	=14	=14	=14	=14	=14	=14	=14	=14	=14	=14
8C/L	.	8C/L	.	4A\	-mi-	8c\L	.	8f/L	.	8a\L	.	1c 1C	.	4ff 4a\	.	4aa\	.
8C/	.	8C/	.	.	.	8c\	.	8f/J	.	8a\J	.	.	.	.	.	.	.
8C/	.	8C/	.	4f\	-sit	8c\	.	8a/L	.	8ff\L	.	.	.	4aa 4ff\	.	2fff\	.
8C/	.	8C/	.	.	.	8c\	.	8a/J	.	8ff\J	.	.	.	.	.	.	.
8C/	.	8C/	.	4f\	spi-	8c\	.	8b-L 8g/	.	8ff\L	.	.	.	(2ddd (2bb-\	.	.	.
8C/	.	8C/	.	.	.	8c\	.	8b-J 8g/	.	8ff\J	.	.	.	.	.	.	.
8C/	.	8C/	.	4en\	-ri-	8c\	.	8b-L 8g/	.	8een\L	.	.	.	.	.	4eeen\	.
8C/J	.	8C/J	.	.	.	8c\J	.	8b-J 8g/	.	8ee\J	.	.	.	.	.	.	.
=15	=15	=15	=15	=15	=15	=15	=15	=15	=15	=15	=15	=15	=15	=15	=15	=15	=15
*	*	*	*	*	*	*	*	*	*	*	*	*	*	*^	*	*	*
8F'\L	.	8F'\L	.	4f\	-tum	4f\	.	4a/	.	4ff\	.	8c 8F\	.	4aa 4ff\))	2ryy	.	4fff\	.
(8c\	.	(8c\	.	.	.	.	.	.	.	.	.	(8c\L	p	.	.	.	.	.
8A\	.	8A\	.	4r	.	4r	.	4r	.	4r	.	8A\	.	4r	.	.	4r	.
8F\J)	.	8F\J)	.	.	.	.	.	.	.	.	.	8F\J)	.	.	.	.	.	.
2E-^\	.	2E-^\	.	4.c\	vi-	2c^\	p	2f^/	.	(2a^/	p	2E-^\	.	(2a/	(2f\	p	2r	.
.	.	.	.	(16f#X\LL	-dit	.	.	.	.	.	.	.	.	.	.	.	.	.
.	.	.	.	16e-\JJ)	.	.	.	.	.	.	.	.	.	.	.	.	.	.
!!LO:PB:g=original
=16	=16	=16	=16	=16	=16	=16	=16	=16	=16	=16	=16	=16	=16	=16	=16	=16	=16	=16
8D|>\L	.	8D|>\L	.	4f\	su-	4.B-/	.	4.f/	.	4.b-\)	.	8D'\L	.	4.b-/)	4.f\)	.	1r	.
(8B-\	.	(8B-\	.	.	.	.	.	.	.	.	.	(8B-\	.	.	.	.	.	.
8F\	.	8F\	.	8f\	-um	.	.	.	.	.	.	8F\	.	.	.	.	.	.
8E-\J)	.	8E-\J)	.	8r	.	8r	.	8r	.	8r	.	8E-\J)	.	8r	8r	.	.	.
2D-X\	.	2D-X\	.	4.B-\	dul-	(2B-/	.	[2e-/	.	(2g/	.	2D-X\	.	2b-^/	2g\	.	.	.
.	.	.	.	(16c\LL	-cem	.	.	.	.	.	.	.	.	.	.	.	.	.
.	.	.	.	16d-X\JJ)	.	.	.	.	.	.	.	.	.	.	.	.	.	.
*	*	*	*	*	*	*	*	*	*	*	*	*	*	*v	*v	*	*	*
=17	=17	=17	=17	=17	=17	=17	=17	=17	=17	=17	=17	=17	=17	=17	=17	=17	=17
8C|>\L	.	8C|>\L	.	4e-\	na-	4.A-X/)	.	4.e-/]	.	4.a-X/)	.	8C|>\L	.	4.a-X 4.e-/	.	1r	.
(8A-X\	.	(8A-X\	.	.	.	.	.	.	.	.	.	(8A-X\	.	.	.	.	.
8E-\	.	8E-\	.	8e-\	-tum	.	.	.	.	.	.	8E-\	.	.	.	.	.
8C\J)	.	8C\J)	.	8r	.	8r	.	8r	.	8r	.	8C\J)	.	8r	.	.	.
4D-X\	.	4D-X\	.	(8e-\L	dul-	4r	.	4r	.	4r	.	4D-X\	.	2r	.	.	.
.	.	.	.	8d-X\J)	.	.	.	.	.	.	.	.	.	.	.	.	.
4r	.	4r	.	(8F/L	-cem	4d-X\	.	4f/	.	4b-\	.	4r	.	.	.	.	.
.	.	.	.	8B-/J)	.	.	.	.	.	.	.	.	.	.	.	.	.
=18	=18	=18	=18	=18	=18	=18	=18	=18	=18	=18	=18	=18	=18	=18	=18	=18	=18
4E-\	.	4E-\	.	(8A-X/L	na-	4r	.	4r	.	4r	.	1r	.	1r	.	1r	.
.	.	.	.	8E-/J	.	.	.	.	.	.	.	.	.	.	.	.	.
4r	.	4r	.	2c\	.	4c\	.	4e-/	.	4a-X/	.	.	.	.	.	.	.
4EE-/	.	4EE-/	.	.	.	4r	.	4r	.	4r	.	.	.	.	.	.	.
4r	.	4r	.	4B-\	.	4B-/	.	4e- 4d-X/	.	4g/	.	.	.	.	.	.	.
=19	=19	=19	=19	=19	=19	=19	=19	=19	=19	=19	=19	=19	=19	=19	=19	=19	=19
!LO:TX:t=P:problem=mixed beam	!	!LO:TX:t=P:problem=mixed beam	!	!	!	!	!	!	!	!	!	!	!	!	!	!	!
!	!	!	!	!	!	!	!	!	!	!	!	!LO:TX:t=P:problem=mixed beam	!	!	!	!	!
8AA-X|<\L	.	8AA-X|<\L	.	4A-X\)	-tum	4A-X/	.	4e- 4c/	.	4a-X/	.	8AA-X\L|	.	2r	.	1r	.
(8A-X\	.	(8A-X\	.	.	.	.	.	.	.	.	.	(8A-X\	.	.	.	.	.
8E-\	.	8E-\	.	4r	.	4r	.	4r	.	4r	.	8E-\	.	.	.	.	.
8C\J)	.	8C\J)	.	.	.	.	.	.	.	.	.	8C\J)	.	.	.	.	.
2AA-/	.	2AA-/	.	4.dn\	mo-	8r	.	8r	.	8r	.	(2A- (2AA-/	.	([2b- 2d^/	.	.	.
.	.	.	.	.	.	8F/L	.	8B-/L	.	(8dn'/L	.	.	.	.	.	.	.
.	.	.	.	.	.	8F/	.	8B-/	.	8d'/	.	.	.	.	.	.	.
.	.	.	.	(16e-\LL	-ri-	8F/J	.	8B-/J	.	8d'/J)	.	.	.	.	.	.	.
.	.	.	.	16f\JJ)	.	.	.	.	.	.	.	.	.	.	.	.	.
!!LO:LB:g=original
=20	=20	=20	=20	=20	=20	=20	=20	=20	=20	=20	=20	=20	=20	=20	=20	=20	=20
4GG/	.	4GG/	.	4e-\	-en-	8r	.	8r	.	8r	.	4G 4GG/))	.	4b-] 4e-/)	.	1r	.
.	.	.	.	.	.	8GL 8E-/	.	8B-/L	.	8e-/L	.	.	.	.	.	.	.
4r	.	4r	.	8B-\	-do	8G 8E-/	.	8B-/	.	8e-/	.	4r	.	4r	.	.	.
.	.	.	.	8r	.	8GJ 8E-/	.	8B-/J	.	8e-/J	.	.	.	.	.	.	.
2AA-X/	>]	2AA-X/	>]	4.dn\	de-	8r	.	8r	.	8r	.	(2A-X (2AA-X\	.	([2b- 2d^/	.	.	.
.	.	.	.	.	.	8F/L	.	8B-/L	.	8d/L	.	.	.	.	.	.	.
.	.	.	.	.	.	8F/	.	8B-/	.	8d/	.	.	.	.	.	.	.
.	.	.	.	(16e-\LL	-so-	8F/J	.	8B-/J	.	8d/J	.	.	.	.	.	.	.
.	.	.	.	16f\JJ)	.	.	.	.	.	.	.	.	.	.	.	.	.
=21	=21	=21	=21	=21	=21	=21	=21	=21	=21	=21	=21	=21	=21	=21	=21	=21	=21
4GG/	.	4GG/	.	4e-\	-la-	8r	.	8r	.	8r	.	4G 4GG\))	.	4b-] 4e-/)	.	1r	.
.	.	.	.	.	.	8GL 8E-/	.	8B-/L	.	8e-/L	.	.	.	.	.	.	.
4r	.	4r	.	8B-\	-tum	8G 8E-/	.	8B-/	.	8e-/	.	4r	.	4r	.	.	.
.	.	.	.	8r	.	8GJ 8E-/	.	8B-/J	.	8e-/J	.	.	.	.	.	.	.
8AA-X/L|	.	8AA-X/L|	.	8c\L	de-	8A-X'/L	.	8c'/L	.	8c'/L	.	2r	.	2r	.	.	.
(8FF/	.	(8FF/	.	8a-X\	.	(8c/	.	(8f/	.	(8a-X/	.	.	.	.	.	.	.
8GG/	.	8GG/	.	8g\J	.	8B-/	.	8en/	.	8g/	.	.	.	.	.	.	.
8AA-/J)	.	8AA-/J)	.	8f\	-so-	8A-/J)	.	8f/J)	.	8f/J)	.	.	.	.	.	.	.
=22	=22	=22	=22	=22	=22	=22	=22	=22	=22	=22	=22	=22	=22	=22	=22	=22	=22
8BB-/	.	8BB-/	.	4.e-\	-la-	8r	.	8r	.	8r	.	1r	.	1r	.	1r	.
8r	.	8r	.	.	.	8G/	.	8B-/	.	8e-/	.	.	.	.	.	.	.
8BB-/	.	8BB-/	.	.	.	8r	.	8r	.	8r	.	.	.	.	.	.	.
8r	.	8r	.	8B-\	-tum	8G/	.	8B-/	.	8e-/	.	.	.	.	.	.	.
8BB-/	.	8BB-/	.	8c\	mi-	8r	.	8r	.	8r	.	.	.	.	.	.	.
8r	.	8r	.	8B-\	-sit	8A-X 8F/	.	8B-/	.	8d/	.	.	.	.	.	.	.
8BB-/	.	8BB-/	.	8A-X\	spi-	8r	.	8r	.	8r	.	.	.	.	.	.	.
8r	.	8r	.	8F/	-ri-	8A- 8F/	.	8B-/	.	8d/	.	.	.	.	.	.	.
=23	=23	=23	=23	=23	=23	=23	=23	=23	=23	=23	=23	=23	=23	=23	=23	=23	=23
*	*	*	*	*	*	*	*	*	*	*	*	*^	*	*	*	*	*
8E-\	.	8E-\	.	4E-/	-tum.	8G 8E-/	.	8B-/	.	8e-/	.	8r	8ryy	.	8r	.	8r	.
8E-/L	f	8E-/L	f	.	.	16gLL 16G\	.	16ee-\LL	f	16gg\LL	f	8G/L	8E-\L	f	(8ggL 8ee-\	.	(8ggg\L	f
.	.	.	.	.	.	16g 16G\	.	16ee-\	.	16gg\	.	.	.	.	.	.	.	.
8BBn/	.	8BBn/	.	4r	.	16g 16G\	.	16dd\	.	16ff\	.	8G/	8BBn\	.	8ff 8dd\	.	8fff\	.
.	.	.	.	.	.	16g 16G\	.	16dd\	.	16ff\	.	.	.	.	.	.	.	.
8C/J	.	8C/J	.	.	.	16g 16G\	.	16cc\	.	16ee-\	.	8G/J	8C\J	.	8ee-J 8cc\)	.	8eee-\J)	.
.	.	.	.	.	.	16gJJ 16G\	.	16cc\JJ	.	16ee-\JJ	.	.	.	.	.	.	.	.
8D/L	.	8D/L	.	2r	.	16gLL 16G\	.	16b-\LL	.	16dd\LL	.	2G/	8D\L	.	(8ddL 8b-\	.	(8ddd\L	.
.	.	.	.	.	.	16g 16G\	.	16b-\	.	16dd\	.	.	.	.	.	.	.	.
8E-/	.	8E-/	.	.	.	16g 16G\	.	16cc\	.	16cc\	.	.	8E-\	.	8cc\	.	8ccc\	.
.	.	.	.	.	.	16g 16G\	.	16cc\	.	16cc\	.	.	.	.	.	.	.	.
8D/	.	8D/	.	.	.	16g 16G\	.	16b-\	.	16dd\	.	.	8D\	.	8dd 8b-\	.	8ddd\	.
.	.	.	.	.	.	16g 16G\	.	16b-\	.	16dd\	.	.	.	.	.	.	.	.
8C/J	.	8C/J	.	.	.	16g 16G\	.	16cc\	.	16ee-\	.	.	8C\J	.	8ee-J 8cc\)	.	8eee-\J)	.
.	.	.	.	.	.	16gJJ 16G\	.	16cc\JJ	.	16ee-\JJ	.	.	.	.	.	.	.	.
!!LO:PB:g=original
=24	=24	=24	=24	=24	=24	=24	=24	=24	=24	=24	=24	=24	=24	=24	=24	=24	=24	=24
4D\	.	1r	.	2r	.	4g 4G\	.	4dd\	.	4dd\	.	4G/	4D\	.	4dd 4b-\	.	4ddd\	.
4r	.	.	.	.	.	4g 4G\	.	4gg 4b- 4d\	.	4gg 4b- 4d\	.	4r	2.ryy	.	4gg 4b-\	.	4ggg\	.
8D/L	.	.	.	4r	.	8d/L	.	4ff#X 4a 4d\	.	4ff#X 4a 4d\	.	8dL 8D'\	.	.	4ff#X 4a\	.	4fff#X\	.
8C/	.	.	.	.	.	8c/	.	.	.	.	.	8c 8C'\	.	.	.	.	.	.
8BB-/	.	.	.	[4d\	Vi-	8B-/	.	4r	.	4r	.	8B- 8BB-'\	.	.	4r	.	4r	.
8AA/J	.	.	.	.	.	8A/J	.	.	.	.	.	8AJ 8AA'\	.	.	.	.	.	.
*	*	*	*	*	*	*	*	*	*	*	*	*v	*v	*	*	*	*	*
=25	=25	=25	=25	=25	=25	=25	=25	=25	=25	=25	=25	=25	=25	=25	=25	=25	=25
!LO:TX:t=P:problem=mixed beam	!	!LO:TX:t=P:problem=mixed beam	!	!	!	!	!	!	!	!	!	!	!	!	!	!LO:TX:t=P:problem=dźwięk prawie niewidoczny	!
8GG/L	fp	8GG/L	fp	4.d\]	.	8G/	f	8B-/	f	8g/	f	4G 4GG/	.	4gg 4b-\	.	4ryy	.
8G/	.	8G/	.	.	.	8dL 8G\	p	(8B-'/L	p	(8g'/L	p	.	.	.	.	.	.
8G/	.	8G/	.	.	.	8d 8G\	.	8B-'/	.	8g'/	.	4r	.	4r	.	4r	.
8G/J	.	8G/J	.	8c\	-dit	8dJ 8G\	.	8B-'/J)	.	8g'/J)	.	.	.	.	.	.	.
8G\L	.	8G\L	.	8B-\	su-	8dL 8G\	.	(8B-'/L	.	(8g'/L	.	2r	.	2r	.	2r	.
8G\	.	8G\	.	8A\	-um	8d 8G\	.	8B-'/	.	8g'/	.	.	.	.	.	.	.
8G\	.	8G\	.	8G\	dul-	8d 8G\	.	8B-'/	.	8g'/	.	.	.	.	.	.	.
8G\J	.	8G\J	.	8A\	-cem	8dJ 8G\	.	8B-'/J)	.	8g'/J)	.	.	.	.	.	.	.
=26	=26	=26	=26	=26	=26	=26	=26	=26	=26	=26	=26	=26	=26	=26	=26	=26	=26
*	*	*	*	*	*	*	*	*	*	*	*	*^	*	*^	*	*	*
8G\L	.	8G\L	.	2B-\	na-	8dL 8G\	.	8B-/L	.	8g/L	.	1rCC	2r	.	1rF	2r	.	2r	.
8G\	.	8G\	.	.	.	8d 8G\	.	8B-/	.	8g/	.	.	.	.	.	.	.	.	.
8G\	.	8G\	.	.	.	8d 8G\	.	8B-/	.	8g/	.	.	.	.	.	.	.	.	.
8G\J	.	8G\J	.	.	.	8d 8G\	.	8B-/	.	8g/	.	.	.	.	.	.	.	.	.
8G\L	.	8G\L	.	4G/	-tum	8d 8G\	.	8B-/	.	8g/	.	.	4r	.	.	4r	.	4r	.
8G\	.	8G\	.	.	.	8d 8G\	.	8B-/	.	8g/	.	.	.	.	.	.	.	.	.
*	*	*	*	*	*	*	*	*	*	*	*	*clefC4	*	*	*	*	*	*	*
8G\	.	8G\	.	8d\	vi-	8d 8G\	.	8B-/	.	8g/	.	.	8d/L	.	.	(8dd/L	.	(8ddd\L	p
8G\J	.	8G\J	.	8g\	-dit	8dJ 8G\	.	8B-/J	.	8g/J	.	.	8g/J	.	.	8gg/J)	.	8ggg\J)	.
=27	=27	=27	=27	=27	=27	=27	=27	=27	=27	=27	=27	=27	=27	=27	=27	=27	=27	=27	=27
8C/L	.	8C/L	.	4e-\	su-	8e-L 8G\	.	8c/L	.	8g/L	.	1rEE	(4e-/	.	1rF	(4ee-/	.	(4eee-\	.
8C/	.	8C/	.	.	.	8e- 8G\	.	8c/	.	8g/	.	.	.	.	.	.	.	.	.
8C/	.	8C/	.	2c\	-um	8e- 8G\	.	8c/	.	8g/	.	.	2c/)	.	.	2cc/)	.	2ccc\)	.
8C/J	.	8C/J	.	.	.	8e-J 8G\	.	8c/	.	8g/J	.	.	.	.	.	.	.	.	.
8AA/L	.	8AA/L	.	.	.	8e-L 8F/	.	8c/	.	8f/L	.	.	.	.	.	.	.	.	.
8AA/	.	8AA/	.	.	.	8e- 8F/	.	8c/	.	8f/	.	.	.	.	.	.	.	.	.
8AA/	.	8AA/	.	8c\	dul-	8e- 8F/	.	8c/	.	8f/	.	.	(8c/L	.	.	(8cc/L	.	(8ccc\L	.
8AA/J	.	8AA/J	.	8f\	-cem	8e-J 8F/	.	8c/J	.	8f/J	.	.	8f/J)	.	.	8ff/J)	.	8fff\J)	.
!!LO:LB:g=original
=28	=28	=28	=28	=28	=28	=28	=28	=28	=28	=28	=28	=28	=28	=28	=28	=28	=28	=28	=28
!LO:TX:t=P:problem=mixed beam	!	!LO:TX:t=P:problem=mixed beam	!	!	!	!	!	!	!	!	!	!	!	!	!	!	!	!	!
8BB-\L	.	8BB-\L	.	4d\	na-	8dL 8F/	.	8B-/L	.	8g/L	.	4d/	1r	.	1rF	4dd/	.	4ddd\	.
8B-\	.	8B-\	.	.	.	8d 8F/	.	8B-/	.	8g/	.	.	.	.	.	.	.	.	.
8B-\	.	8B-\	.	2B-\	-tum,	8d 8F/	.	8B-/	.	8g/	.	2B-/	.	.	.	2b-/	.	2bb-\	.
8B-\J	.	8B-\J	.	.	.	8dJ 8F/	.	8B-/	.	8g/J	.	.	.	.	.	.	.	.	.
!LO:TX:t=P:problem=mixed beam	!	!LO:TX:t=P:problem=mixed beam	!	!	!	!	!	!	!	!	!	!	!	!	!	!	!	!	!
8GG/L	.	8GG/L	.	.	.	8dL 8G/	.	8B-/	.	8d/L	.	.	.	.	.	.	.	.	.
8G/	.	8G/	.	.	.	8d 8G/	.	8B-/	.	8d/	.	.	.	.	.	.	.	.	.
8G/	.	8G/	.	(4d\	Vi-	8d 8G/	.	8B-/	.	8d/	.	4r	.	.	.	4r	.	4r	.
8G/J	.	8G/J	.	.	.	8dJ 8G/	.	8B-/J	.	8d/J	.	.	.	.	.	.	.	.	.
*	*	*	*	*	*	*	*	*	*	*	*	*v	*v	*	*	*	*	*	*
*	*	*	*	*	*	*	*	*	*	*	*	*	*	*v	*v	*	*	*
=29	=29	=29	=29	=29	=29	=29	=29	=29	=29	=29	=29	=29	=29	=29	=29	=29	=29
8E-'\L	.	8E-'\L	.	4.c\)	.	8G/L	.	8G/L	.	8c'/L	.	1r	.	1r	.	1r	.
8E-'\	.	8E-'\	.	.	.	8G/	.	8G/	.	8c'/	.	.	.	.	.	.	.
!	!	!	!	!	!	!	!	!	!	!	!LO:DY:a	!	!	!	!	!	!
(8E-\	.	(8E-\	.	.	.	8G/	.	8G/	.	(8c/	<	.	.	.	.	.	.
8D\J)	.	8D\J)	.	8Bn\	-dit	8G/	.	8G/	.	8Bn/J)	.	.	.	.	.	.	.
(8E-\L	.	(8E-\L	.	8c\	su-	8G/	.	8G/	.	(8c/L	.	.	.	.	.	.	.
8D\)	.	8D\)	.	8B\	-um	8G/	.	8G/	.	8B/J)	.	.	.	.	.	.	.
(8E-\	.	(8E-\	.	8c\	dul-	8G/	.	8G/	.	(8c/L	.	.	.	.	.	.	.
8BBn\J)	.	8BBn\J)	.	8d\	-cem	8G/J	.	8G/J	.	8d/J)	[[	.	.	.	.	.	.
=30	=30	=30	=30	=30	=30	=30	=30	=30	=30	=30	=30	=30	=30	=30	=30	=30	=30
8C'/L	.	8C'/L	.	4.e-\	Vi-	8G/L	.	8G/L	.	8e-'/L	.	1ryy	.	1ryy	.	1ryy	.
8C'/	.	8C'/	.	.	.	8G/	.	8G/	.	8e-'/	.	.	.	.	.	.	.
(8C/	.	(8C/	.	.	.	8G/	.	8G/	.	(8e-/	.	.	.	.	.	.	.
8BBn/J)	.	8BBn/J)	.	8d\	-dit	8G/	.	8G/	.	8d/J)	.	.	.	.	.	.	.
(8C/L	.	(8C/L	.	8e-\L	su-	8G/	.	8G/	.	(8e-/L	.	.	.	.	.	.	.
8BB/J)	.	8BB/J)	.	8d\J	-um	8G/	.	8G/J	.	8d/J)	.	.	.	.	.	.	.
(8C/L	.	(8C/L	.	8e-\	dul-	8G/	.	(8G/L	.	(8e-/L	.	.	.	.	.	.	.
8D/J)	.	8D/J)	.	8f\	-cem	8G/J	.	8Bn/J)	.	8f/J)	.	.	.	.	.	.	.
=31	=31	=31	=31	=31	=31	=31	=31	=31	=31	=31	=31	=31	=31	=31	=31	=31	=31
4E-\	p	4E-\	p	(4f#X\	na-	4r	.	4r	.	4r	p	1ryy	.	1ryy	.	1ryy	.
4r	.	4r	.	4g\	.	4G/	.	4c/	.	4e-/	.	.	.	.	.	.	.
4C/	.	4C/	.	8a\L	.	4r	.	4r	.	4r	.	.	.	.	.	.	.
.	.	.	.	8g\	.	.	.	.	.	.	.	.	.	.	.	.	.
4r	.	4r	.	8e-\	.	4G/	.	4c/	.	4e-/	.	.	.	.	.	.	.
.	.	.	.	8c\J	.	.	.	.	.	.	.	.	.	.	.	.	.
!!LO:PB:g=original
=32	=32	=32	=32	=32	=32	=32	=32	=32	=32	=32	=32	=32	=32	=32	=32	=32	=32
4D\	.	4D\	.	8B-\L	.	4r	.	4r	.	4r	.	1r;	.	1r;	.	1r;	.
.	.	.	.	8A\J	.	.	.	.	.	.	.	.	.	.	.	.	.
4r	.	4r	.	4.G/	.	4G/	.	4B-/	.	4d/	.	.	.	.	.	.	.
4D\	.	4D\	.	.	.	4r	.	4r	.	4r	.	.	.	.	.	.	.
!	!	!	!	!LO:TX:t=P:problem=fermata nad trzema nutami	!	!	!	!	!	!	!	!	!	!	!	!	!
.	.	.	.	(8F#X\L	.	.	.	.	.	.	.	.	.	.	.	.	.
4r;	.	4r;	.	8e-\	.	4A;/	.	4c;/	.	4f#X;/	.	.	.	.	.	.	.
.	.	.	.	8d\J))	.	.	.	.	.	.	.	.	.	.	.	.	.
=33	=33	=33	=33	=33	=33	=33	=33	=33	=33	=33	=33	=33	=33	=33	=33	=33	=33
*	*	*	*	*	*	*	*	*	*	*	*	*	*	*^	*	*	*
!	!	!	!	!	!	!	!	!	!	!	!	!LO:TX:t=P:problem=brak zaznaczonej zmiany klucza	!	!	!	!	!	!
8G'\L	.	8G'\L	.	4G/	-tum	4G/	.	4B-/	.	4g/	.	8G'\L	p	2r	2ryy	.	1r	.
(8d\	.	(8d\	.	.	.	.	.	.	.	.	.	(8d\	.	.	.	.	.	.
8B-\	.	8B-\	.	4r	.	4r	.	4r	.	4r	.	8B-\	.	.	.	.	.	.
8G\J)	.	8G\J)	.	.	.	.	.	.	.	.	.	8G\J)	.	.	.	.	.	.
2F^\	.	2F^\	.	(4.Bn\	mo-	(2d\	.	[2g/	.	(2bn^\	.	(2d (2F^\	.	(2bn^/	[2g\	p	.	.
.	.	.	.	16c\LL	-ri-	.	.	.	.	.	.	.	.	.	.	.	.	.
.	.	.	.	16d\JJ)	.	.	.	.	.	.	.	.	.	.	.	.	.	.
=34	=34	=34	=34	=34	=34	=34	=34	=34	=34	=34	=34	=34	=34	=34	=34	=34	=34	=34
8E-'\L	.	8E-'\L	.	4e-\	-en-	4.c\)	.	4.g/]	.	4.cc\)	.	8cL 8E-\))	.	4.cc/)	4.g\]	.	(4eee-\	p
(8c\	.	(8c\	.	.	.	.	.	.	.	.	.	(8c\	.	.	.	.	.	.
8G\	.	8G\	.	8c\	-do	.	.	.	.	.	.	8G\	.	.	.	.	8ccc\)	.
8F\J)	.	8F\J)	.	8r	.	8r	.	8r	.	8r	.	8F\J)	.	8r	8ryy	.	8r	.
2E-^\	.	2E-^\	.	4.A\	de-	(2c\	.	[2f/	.	(2a^/	.	2c 2E-\	.	(2a/	[2f\	.	2r	.
.	.	.	.	(16B-X\LL	-so-	.	.	.	.	.	.	.	.	.	.	.	.	.
.	.	.	.	16c\JJ)	.	.	.	.	.	.	.	.	.	.	.	.	.	.
*	*	*	*	*	*	*	*	*	*	*	*	*	*	*v	*v	*	*	*
=35	=35	=35	=35	=35	=35	=35	=35	=35	=35	=35	=35	=35	=35	=35	=35	=35	=35
8D'\L	.	8D'\L	.	4d\	-la-	4.B-/)	.	4.f/]	.	4.b-\)	.	8B-L 8D\|	.	4.b- 4.f/])	.	(4ddd\	.
(8B-\	.	(8B-\	.	.	.	.	.	.	.	.	.	(8B-\	.	.	.	.	.
8F\	.	8F\	.	8B-\	-tum	.	.	.	.	.	.	8F\	.	.	.	8bb-\)	.
8D\J)	.	8D\J)	.	8r	.	8r	.	8r	.	8r	.	8D\J	.	8r	.	8r	.
8E-\L|	.	8E-\L|	.	(8G\L	dum	8B-/L|	.	8g/	.	8g\L|	.	8E-\)	.	2r	.	2r	.
(8C\	.	(8C\	.	8e-\J)	.	(8c/	.	4g/	.	(8ee-\	.	8r	.	.	.	.	.
8D\	.	8D\	.	(8d\L	e-	8Bn/	.	.	.	8dd\	.	4r	.	.	.	.	.
8E-\J)	.	8E-\J)	.	8c\J)	.	8c/J)	.	8g/	.	8cc\J)	.	.	.	.	.	.	.
!!LO:LB:g=original
=36	=36	=36	=36	=36	=36	=36	=36	=36	=36	=36	=36	=36	=36	=36	=36	=36	=36
4D\	.	4D\	.	4B-\	-mi-	4d\	.	4g/	.	4b-/	.	1r	.	1r	.	1r	.
4r	.	4r	.	4G/	-sit	4B-/	.	4d/	.	4g/	.	.	.	.	.	.	.
4D\	.	4D\	.	4.B-\	spi-	4r	.	4r	.	4r	.	.	.	.	.	.	.
4r	.	4r	.	.	.	4A/	.	4d 4c/	.	4f#X/	.	.	.	.	.	.	.
.	.	.	.	8A\	-ri-	.	.	.	.	.	.	.	.	.	.	.	.
=37	=37	=37	=37	=37	=37	=37	=37	=37	=37	=37	=37	=37	=37	=37	=37	=37	=37
*	*	*	*	*	*	*	*	*	*	*	*	*	*	*^	*	*	*
8G'\L	.	8G'\L	.	4G/	-tum	4G/	.	4d 4B-/	.	4g/	.	8G'\L	p	2r	2ryy	.	1r	.
(8d\	.	(8d\	.	.	.	.	.	.	.	.	.	(8d\	.	.	.	.	.	.
8B-\	.	8B-\	.	4r	.	4r	.	4r	.	4r	.	8B-\	.	.	.	.	.	.
8G\J)	.	8G\J)	.	.	.	.	.	.	.	.	.	8G\J)	.	.	.	.	.	.
2F^\	.	2F^\	.	4.Bn\	mo-	[2d\	.	[2g/	.	(2bn\	.	(2d (2F^\	.	(2bn^/	[2g\	.	.	.
.	.	.	.	(16c\LL	-ri-	.	.	.	.	.	.	.	.	.	.	.	.	.
.	.	.	.	16d\JJ)	.	.	.	.	.	.	.	.	.	.	.	.	.	.
=38	=38	=38	=38	=38	=38	=38	=38	=38	=38	=38	=38	=38	=38	=38	=38	=38	=38	=38
8E-\L|	.	8E-\L|	.	(8.c\L	-en-	4d\]	.	4g/]	.	4cc\)	.	8cL 8E-'\))	.	4.cc/)	4.g\]	.	(4ccc\	p
(8c\	.	(8c\	.	.	.	.	.	.	.	.	.	(8c\	.	.	.	.	.	.
.	.	.	.	16g\Jk)	.	.	.	.	.	.	.	.	.	.	.	.	.	.
8G\	.	8G\	.	8g\	-do	4r	.	4r	.	4r	.	8G\	.	.	.	.	8ggg\)	.
8F\J)	.	8F\J)	.	8r	.	.	.	.	.	.	.	8F\J)	.	8r	8ryy	.	8r	.
2E-^\	.	2E-^\	.	4.A\	de-	[2c\	.	[2f/	.	(2a/	.	(2c (2E-^\	.	(2a^/	[2f\	.	2r	.
.	.	.	.	(16B-\LL	-so-	.	.	.	.	.	.	.	.	.	.	.	.	.
.	.	.	.	16c\JJ)	.	.	.	.	.	.	.	.	.	.	.	.	.	.
=39	=39	=39	=39	=39	=39	=39	=39	=39	=39	=39	=39	=39	=39	=39	=39	=39	=39	=39
8D\L|	.	8D\L|	.	8.B-\L	-la-	4.c\]	.	4.f/]	.	4.b-\)	.	8B-L 8D\))	.	4.b-/)	4.f\]	.	(4bb-\	.
(8B-\	.	(8B-\	.	.	.	.	.	.	.	.	.	(8B-\	.	.	.	.	.	.
.	.	.	.	16f\Jk	.	.	.	.	.	.	.	.	.	.	.	.	.	.
8F\	.	8F\	.	8f\	-tum	.	.	.	.	.	.	8F\	.	.	.	.	8fff\)	.
8D\J)	.	8D\J)	.	8r	.	8r	.	8r	.	8r	.	8D\J)	.	8r	8ryy	.	8r	.
8E-\L|	.	8E-\L|	.	(8G\L	dum	8B-/L|	.	8g/	.	8g\L|	.	8E-\	.	2r	2ryy	.	2r	.
(8C\	.	(8C\	.	8e-\J)	.	(8c/	.	4g/	.	(8ee-\	.	8r	.	.	.	.	.	.
8D\	.	8D\	.	(8d\L	e	8Bn/	.	.	.	8dd\	.	4r	.	.	.	.	.	.
8E-\J)	.	8E-\J)	.	8c\J)	.	8c/J)	.	8g/	.	8cc\J)	.	.	.	.	.	.	.	.
!!LO:PB:g=original
*	*	*	*	*	*	*	*	*	*	*	*	*	*	*v	*v	*	*	*
=40	=40	=40	=40	=40	=40	=40	=40	=40	=40	=40	=40	=40	=40	=40	=40	=40	=40
4D\	.	4D\	.	4B-\	.	4d\	.	4g/	.	4b-/	.	1r	.	1r	.	1r	.
4r	.	4r	.	4G/	.	4B-/	.	4d/	.	4g/	.	.	.	.	.	.	.
4D\	.	4D\	.	4B-\	.	4r	.	4r	.	4r	.	.	.	.	.	.	.
4r	.	4r	.	(8A\L	.	4A/	.	4d 4c/	.	4f#X/	.	.	.	.	.	.	.
!	!	!	!	!LO:TX:t=P:LO:N:vis=16:problem	!	!	!	!	!	!	!	!	!	!	!	!	!
.	.	.	.	8d\J)	.	.	.	.	.	.	.	.	.	.	.	.	.
=41	=41	=41	=41	=41	=41	=41	=41	=41	=41	=41	=41	=41	=41	=41	=41	=41	=41
8G\	.	8G\	.	4G/	.	8G/	.	8d 8B-/	.	8g/	.	8r	.	8r	.	8r	.
!	!	!	!	!	!	!	!	!LO:TX:a:t=unis	!	!	!	!	!	!	!	!	!
(8c#X\L	f	(8c#X\L	f	.	.	(8cc#X\L	f	(8cc#X\L	.	(8cc#X\L	.	(8c#X\L	f	(8cc#X\L	f	(8ccc#X\L	f
8d\J)	.	8d\J)	.	4r	.	8dd\J)	.	8dd\J)	.	8dd\J)	.	8d\J)	.	8dd\J)	.	8ddd\J)	.
(8A\L	.	(8A\L	.	.	.	(8a\L	.	(8a/L	.	(8a/L	.	(8A\L	.	(8a/L	.	(8aa\L	.
8B-\J)	.	8B-\J)	.	2r	.	8b-\J)	.	8b-/J)	.	8b-/J)	.	8B-\J)	.	8b-/J)	.	8bb-\J)	.
(8F#X\L	.	(8F#X\L	.	.	.	(8f#X\L	.	(8f#X/L	.	(8f#X/L	.	(8F#X\L	.	(8f#X/L	.	(8ff#X\L	.
8G\)	.	8G\)	.	.	.	8g\)	.	8g/)	.	8g/)	.	8G\)	.	8g/)	.	8gg\)	.
8E-'\J	.	8E-'\J	.	.	.	8e-'\J	.	8e-'/J	.	8e-'/J	.	8E-'\J	.	8e-X'/J	.	8ee-X'\J	.
=42	=42	=42	=42	=42	=42	=42	=42	=42	=42	=42	=42	=42	=42	=42	=42	=42	=42
4D\	.	4D\	.	1r	.	4d\	.	4d/	.	4d/	.	4D\	.	4d/	.	4dd\	.
4r	.	4r	.	.	.	4r	.	4gg 4b- 4d\	.	4gg 4b- 4d\	.	4r	.	4gg 4b-\	.	4ggg\	.
4D\	.	4D\	.	.	.	4D/	.	4r	.	4r	.	4D\	.	4r	.	4r	.
4r	.	4r	.	.	.	4r	.	4ff#X 4a 4d\	.	4ff#X 4a 4d\	.	4r	.	4ff#X 4a\	.	4fff#X\	.
=43	=43	=43	=43	=43	=43	=43	=43	=43	=43	=43	=43	=43	=43	=43	=43	=43	=43
8G\	.	8G\	.	1r	.	8G/	.	8gg 8b- 8d\	.	8gg 8b- 8d\	.	8G\	.	8gg 8b-\	.	8ggg\	.
(8c#X\L	.	(8c#X\L	.	.	.	(8cc#X\L	.	(8cc#X\L	.	(8cc#X\L	.	8r	.	8r	.	8r	.
8d\J)	.	8d\J)	.	.	.	8dd\J)	.	8dd\J)	.	8dd\J)	.	4r	.	4r	.	4r	.
(8A\L	.	(8A\L	.	.	.	(8a\L	.	(8a/L	.	(8a/L	.	.	.	.	.	.	.
8B-\J)	.	8B-\J)	.	.	.	8b-\J)	.	8b-/J)	.	8b-/J)	.	2r	.	2r	.	2r	.
(8F#X\L	.	(8F#X\L	.	.	.	(8f#X\L	.	(8f#X/L	.	(8f#X/L	.	.	.	.	.	.	.
8G\)	.	8G\)	.	.	.	8g\)	.	8g/)	.	8g/)	.	.	.	.	.	.	.
8E-'\J	.	8E-'\J	.	.	.	8e-'\J	.	8e-'/J	.	8e-'/J	.	.	.	.	.	.	.
!!LO:LB:g=original
=44	=44	=44	=44	=44	=44	=44	=44	=44	=44	=44	=44	=44	=44	=44	=44	=44	=44
4D\	.	4D\	.	1r	.	4d\	.	4d/	.	4d/	.	4d 4D\	.	4r	.	4r	.
4r	.	4r	.	.	.	4r	.	4gg 4b- 4d\	.	4gg 4b- 4d\	.	4r	.	4gg 4b-\	.	4ggg\	.
4D\	.	4D\	.	.	.	4D/	.	4r	.	4r	.	4D\	.	4r	.	4r	.
4r	.	4r	.	.	.	4r	.	4ff#X 4a 4d\	.	4ff#X 4a 4d\	.	4r	.	4ff#X 4a\	.	4fff#X\	.
=45	=45	=45	=45	=45	=45	=45	=45	=45	=45	=45	=45	=45	=45	=45	=45	=45	=45
4GG/	.	4GG/	.	1r	.	4G/	.	4gg 4b- 4d\	.	4gg 4b- 4d\	.	4G 4GG\	.	4gg 4b-\	.	4ggg\	.
4r	.	4r	.	.	.	4r	.	4g 4G/	.	4g 4G/	.	4G\	.	4g/	.	4gg\	.
4G\	.	4G\	.	.	.	4g 4G\	.	2r	.	2r	.	2r	.	2r	.	2r	.
4r	.	4r	.	.	.	4r	.	.	.	.	.	.	.	.	.	.	.
==	==	==	==	==	==	==	==	==	==	==	==	==	==	==	==	==	==
*-	*-	*-	*-	*-	*-	*-	*-	*-	*-	*-	*-	*-	*-	*-	*-	*-	*-
!!!system-decoration: s1,s2,s3[(s4,s5)]s6,s7[(s8,s9)]
!!!RDF**kern: > = above
!!!RDF**kern: < = below
!!!RDF**dynam: > = "dim", fontstyle= "bold-italic"
!!!RDF**dynam: < = "cresc", fontstyle= "bold-italic"
!!!RDF**kern: | = vertical stroke
!!!RDF**kern: N = linked
!!!RDF**kern: i = editorial accidental
!!!EED: Wojciech Jakubiak-Danek
!!!EEV: 2021-08-10
!!!ENC: Tomasz Grochalski
!!!END: 2021-07-31
